X:213
U: ~ = !turn!
%%topmargin 3cm
T:Waltz Air
B:Traditional Irish Fiddle Tunes. Randy Miller and Jack Perron.
Z:Transcribed by Ralph Palmer
S:Mary O'Hara
R:Air
L:1/8
M:3/4
K:G
D| DB B3 A | AG G3 G | FE D2 EF | AG G2 z :|
D | Dc c3 c | cB B3 A | GB d2 cB | BA A3 D |
DB B3 A | AG G3 G | FE D2 EF | AG G3 |]
